X:1
T:Title
L:1/8
Q:1/4=90
M:6/8
K:A
V:1 treble nm="Church Organ, Staff"
V:1
 c B2 c A2 | d B2 c A2 | BAG F E2- | EAB- B2 B- | B2 c deB- | Bcd- d/ z/ Ac- | ccB- B/ z/ AG- | %7
w: By~Mr.~Arthur~Henry~Brown * * *|||||||
 GFe- e/ z/ cB- | BEG- G2 A- | AFE- E2 E | z EE FGA | Bcd- d/ z/ ec- | ccc- c/ z/ Bd- | %13
w: ||||||
 dFA- A2 G- | GGA- A/ z/ Ac | BAG- G/ z/ Be- | edc- c/ z/ cc- | ccd- d/ z/ Fc- | cBA- ABc- | %19
w: ||||||
 cde- e3/2 z/ B- | BcA- A2 A |] %21
w: ||

